X: 1
T: Every Little Helps
M: 4/4
L: 1/8
R: reel
K: Amaj
B|: c2ac BAFA | EAAG ABce | f2ec faec | dBcA B2cd |
e2ac BAFA | EAAG ABce | a3e f2af | ecBc A4 :|
f2af fece | A3c e2cB | A2EA GAEA | cBAc B2ce |
f2af fece | A3c e2ce | a3e f2af | ecBc A4 :|
